X:1
T:P.M. Sandy Gordon
M:C
L:1/8
Q:80
C:Bruce Gandy
S:Strathspey
K:HP
[| {Gdc}d2{ag}((3a3/2e/2{g}fed){gdG}d3/2A/2 | \
{g}B/2e3/2{A}e3/2f/2{gf}g3/2e/2{gcd}c/2e3/2 | \
{Gdc}d2{ag}((3a3/2e/2{g}fed){g}e3/2f/2 |
{gf}((3g3/2e/2agf){gef}e2{A}e3/2f/2{Gdc}d2{ag}((3a3/2e/2{g}fed){gdG}d3/2
A/2 | \
{g}B/2e3/2{A}e3/2f/2{gf}g3/2e/2{gcd}c/2e3/2 | \
{ag}a3/2f/2{gf}g3/2e/2{g}((3fed){gcd}c/2{e}A3/2 |
{g}((3e3/2f/2{a}gfe){Gdc}d2{gdG}d3|] [ | \
f/2 | \
{ag}a2{fg}f3/2e/2{Gdc}d3/2e/2{gde}d3/2A/2 | \
{g}B/2e3/2{A}e3/2f/2{gf}g3/2e/2{gcd}c/2e3/2 |
{ag}a2{fg}f3/2e/2{Gdc}d3/2e/2{g}f3/2d/2 | \
{gf}((3g3/2e/2agf){gef}e2{A}e3/2f/2{ag}a2{fg}f3/2e/2{Gdc}d3/2e/2{gde}d3/
2A/2 | \
{g}B/2e3/2{A}e3/2f/2{gf}g3/2e/2{gcd}c/2e3/2 |
{ag}a3/2f/2{gf}g3/2e/2{g}((3fed){gcd}c/2{e}A3/2 | \
{g}((3e3/2f/2{a}gfe){Gdc}d2{gdG}d3|]
